src/assets/outline/Backward15Seconds.svg

<?xml version="1.0" encoding="UTF-8"?>
<svg width="24" height="24" viewBox="0 0 24 24" xmlns="http://www.w3.org/2000/svg">
 <path d="m14.43 16.92h-2.29c-0.41 0-0.75-0.34-0.75-0.75s0.34-0.75 0.75-0.75h2.29c0.43 0 0.7801-0.3499 0.7801-0.7799s-0.3501-0.7801-0.7801-0.7801h-2.29c-0.24 0-0.4699-0.12-0.6099-0.31s-0.1801-0.4499-0.1001-0.6799l0.76-2.29c0.1-0.31 0.3901-0.51 0.7101-0.51h3.06c0.41 0 0.75 0.34 0.75 0.75s-0.34 0.75-0.75 0.75h-2.5201l-0.26 0.7899h1.25c1.26 0 2.2801 1.0201 2.2801 2.2801s-1.0301 2.2799-2.2801 2.2799z"/>
 <path d="m9.54 16.92c-0.41 0-0.75-0.34-0.75-0.75v-3.39l-0.19001 0.22c-0.28 0.31-0.74999 0.33-1.06 0.06-0.31-0.28-0.33-0.75-0.06-1.06l1.5-1.67c0.21-0.23 0.54002-0.31 0.83002-0.2 0.29004 0.11 0.47994 0.39 0.47994 0.7v5.35c0 0.41-0.32996 0.74-0.74996 0.74z"/>
 <path d="m10.02 5.2199c-0.17 0-0.33003-0.04998-0.47003-0.16998-0.32-0.26-0.36999-0.72999-0.11999-1.05l1.98-2.47c0.26-0.32 0.73-0.37006 1.05-0.12006s0.37 0.73005 0.12 1.05l-1.98 2.47c-0.14 0.19-0.36 0.28998-0.58 0.28998z"/>
 <path d="m12 22.75c-5.31 0-9.64-4.32-9.64-9.64 0-2.07 0.67002-4.06 1.95-5.76 0.25-0.33 0.71998-0.39997 1.05-0.14997s0.40003 0.71999 0.15003 1.05c-1.08 1.44-1.65 3.12-1.65 4.86 0 4.49 3.65 8.14 8.14 8.14 4.49 0 8.14-3.65 8.14-8.14 0-4.49-3.65-8.14-8.14-8.14-0.58 0-1.17 0.07003-1.81 0.22003-0.41002 0.09-0.81004-0.16-0.90004-0.56s0.15999-0.81002 0.55999-0.90002c0.75005-0.17 1.46-0.26001 2.15-0.26001 5.31 0 9.64 4.32 9.64 9.64 0 5.32-4.33 9.64-9.64 9.64z"/>
</svg>

<svg width="24" height="24" viewBox="0 0 24 24"  xmlns="http://www.w3.org/2000/svg">
<path d="M14.4299 16.92H12.1399C11.7299 16.92 11.3899 16.58 11.3899 16.17C11.3899 15.76 11.7299 15.42 12.1399 15.42H14.4299C14.8599 15.42 15.21 15.0701 15.21 14.6401C15.21 14.2101 14.8599 13.86 14.4299 13.86H12.1399C11.8999 13.86 11.67 13.74 11.53 13.55C11.39 13.36 11.3499 13.1001 11.4299 12.8701L12.1899 10.5801C12.2899 10.2701 12.58 10.0701 12.9 10.0701H15.96C16.37 10.0701 16.71 10.4101 16.71 10.8201C16.71 11.2301 16.37 11.5701 15.96 11.5701H13.4399L13.1799 12.36H14.4299C15.6899 12.36 16.71 13.3801 16.71 14.6401C16.71 15.9001 15.6799 16.92 14.4299 16.92Z" />
<path d="M9.54004 16.9201C9.13004 16.9201 8.79004 16.5801 8.79004 16.1701V12.7801L8.60003 13.0001C8.32003 13.3101 7.85004 13.3301 7.54004 13.0601C7.23004 12.7801 7.21004 12.3101 7.48004 12.0001L8.98004 10.3301C9.19004 10.1001 9.52006 10.0201 9.81006 10.1301C10.1001 10.2401 10.29 10.5201 10.29 10.8301V16.1801C10.29 16.5901 9.96004 16.9201 9.54004 16.9201Z" />
<path d="M10.02 5.21993C9.85 5.21993 9.68997 5.16995 9.54997 5.04995C9.22997 4.78995 9.17998 4.31996 9.42998 3.99996L11.41 1.52999C11.67 1.20999 12.14 1.15993 12.46 1.40993C12.78 1.65993 12.83 2.13998 12.58 2.45998L10.6 4.92995C10.46 5.11995 10.24 5.21993 10.02 5.21993Z" />
<path d="M11.9999 22.75C6.68988 22.75 2.35986 18.43 2.35986 13.11C2.35986 11.04 3.02988 9.04998 4.30988 7.34998C4.55988 7.01998 5.02986 6.95001 5.35986 7.20001C5.68986 7.45001 5.75989 7.92 5.50989 8.25C4.42989 9.69 3.85986 11.37 3.85986 13.11C3.85986 17.6 7.50988 21.25 11.9999 21.25C16.4899 21.25 20.1399 17.6 20.1399 13.11C20.1399 8.61999 16.4899 4.96997 11.9999 4.96997C11.4199 4.96997 10.8299 5.04 10.1899 5.19C9.77988 5.28 9.37986 5.03 9.28986 4.63C9.19986 4.23 9.44985 3.81998 9.84985 3.72998C10.5999 3.55998 11.3099 3.46997 11.9999 3.46997C17.3099 3.46997 21.6399 7.78999 21.6399 13.11C21.6399 18.43 17.3099 22.75 11.9999 22.75Z" />
</svg>
